X:1
T:Unknown jig
S: "BOTTURA Thierry ROSI/SIPROD"  2004-4-26
M:6/8
L:1/8
K:D
|: ADD BDD | AFF FED | ADD BDD | AFD E2D | ADD BDD | AFF FED | E2F GAB | AFD E2D :|
|: dAA BAd | AFF FED | dAA BAd | AFD E2D | dAA BAd | AFF FED | E2F GAB | AFD E2D :|
